teeny/outline/star.svg

<svg width="15" height="15" viewBox="0 0 15 15" fill="none" xmlns="http://www.w3.org/2000/svg">
<path d="M7.5 12.0405L3.17354 14.3151L4 9.4973L0.5 6.08562L5.33677 5.38324L7.5 1L9.66323 5.38324L14.5 6.08562L11 9.4973L11.8265 14.3151L7.5 12.0405Z" stroke="black" stroke-linecap="round" stroke-linejoin="round"/>
</svg>

<svg viewBox="0 0 15 15" xmlns="http://www.w3.org/2000/svg"><path fill="none" stroke="#000" stroke-linecap="round" stroke-linejoin="round" d="M7.5 12.04l-4.33 2.27 .82-4.82 -3.5-3.42 4.83-.71L7.48.97l2.16 4.38 4.83.7 -3.5 3.41 .82 4.81 -4.33-2.28Z"/></svg>
